assets/images/icons/key-info-04.svg

<svg width="32" height="32" viewBox="0 0 32 32" fill="none" xmlns="http://www.w3.org/2000/svg">
<g clip-path="url(#clip0_211_3655)">
<path opacity="0.1" d="M0.223155 23.1618C-0.0589054 20.752 -0.098086 18.3874 0.248062 16.248C0.673696 13.6174 1.78493 10.6909 2.99894 8.07362C5.37163 2.95839 9.61911 1.16885 14.7912 0.362065C22.0007 -0.762522 31.9372 0.362091 32 9.08714C31.6383 12.2073 29.2517 20.8815 21.1951 21.5434C18.5313 21.7622 17.5348 24.4378 16.3612 27.5006C13.2729 35.5602 1.25575 31.9835 0.223155 23.1618Z" fill="#7FB51F"/>
<path fill-rule="evenodd" clip-rule="evenodd" d="M13.9547 22.8199C13.9697 22.8209 13.9857 22.8219 14.0007 22.8219H25.5207C25.9817 22.8219 26.4047 22.5679 26.6227 22.1619C26.8397 21.7549 26.8157 21.2619 26.5607 20.8779L21.2227 12.8709C20.9907 12.5229 20.6007 12.3149 20.1827 12.3149C19.7647 12.3149 19.3737 12.5229 19.1427 12.8709C17.7417 14.9719 13.2857 21.6559 13.2857 21.6559C13.0567 21.9999 13.1497 22.4659 13.4937 22.6959C13.6357 22.7899 13.7967 22.8299 13.9547 22.8199ZM15.3117 21.3219H25.0537L20.1827 14.0149L15.3117 21.3219Z" fill="#7FB51F"/>
<path fill-rule="evenodd" clip-rule="evenodd" d="M13.9081 22.8221H25.5191C25.9801 22.8221 26.4031 22.5681 26.6211 22.1621C26.8381 21.7551 26.8141 21.2621 26.5591 20.8781L23.9411 16.9511C23.7111 16.6071 23.2451 16.5141 22.9011 16.7431L21.8441 17.4481L21.2341 16.8371C20.9811 16.5841 20.5851 16.5451 20.2871 16.7431L19.2311 17.4481L17.9931 16.2101C17.8341 16.0511 17.6121 15.9721 17.3891 15.9941C17.1651 16.0161 16.9631 16.1371 16.8391 16.3241L13.2841 21.6561C13.1311 21.8861 13.1161 22.1821 13.2471 22.4261C13.3771 22.6691 13.6321 22.8221 13.9081 22.8221Z" fill="#7FB51F"/>
<path fill-rule="evenodd" clip-rule="evenodd" d="M12.3279 22.822H6.47994C6.01894 22.822 5.59594 22.568 5.37794 22.161C5.16094 21.755 5.18494 21.262 5.43994 20.878L12.8689 9.73498C13.1009 9.38698 13.4909 9.17798 13.9089 9.17798C14.3269 9.17798 14.7169 9.38698 14.9489 9.73498L17.4899 13.546L16.5879 14.898L13.9089 10.879L6.94694 21.322H12.3279C12.0979 21.805 12.1079 22.357 12.3279 22.822Z" fill="#7FB51F"/>
<path fill-rule="evenodd" clip-rule="evenodd" d="M12.3279 22.8221C12.0739 22.2841 12.0999 21.6311 12.4529 21.1011L17.4529 13.6021C17.3539 13.5371 17.2399 13.4971 17.1189 13.4851C16.8959 13.4631 16.6739 13.5421 16.5149 13.7011L15.3819 14.8341L14.3249 14.1301C14.0279 13.9321 13.6319 13.9711 13.3789 14.2241L11.8179 15.7841L10.6759 14.6421C10.5169 14.4831 10.2949 14.4041 10.0719 14.4261C9.84794 14.4481 9.64594 14.5691 9.52194 14.7561L5.43994 20.8781C5.18494 21.2621 5.16094 21.7551 5.37794 22.1611C5.59594 22.5681 6.01894 22.8221 6.47994 22.8221H12.3279Z" fill="#7FB51F"/>
</g>
<defs>
<clipPath id="clip0_211_3655">
<rect width="32" height="32" fill="white"/>
</clipPath>
</defs>
</svg>

<svg xmlns="http://www.w3.org/2000/svg" width="32" height="32" fill="none"><g fill="#7FB51F" clip-path="url(#a)"><path d="M.223 23.162c-.282-2.41-.321-4.775.025-6.914.426-2.63 1.537-5.557 2.75-8.174C5.373 2.958 9.62 1.169 14.792.362 22.001-.763 31.937.362 32 9.087c-.362 3.12-2.748 11.795-10.805 12.456-2.664.22-3.66 2.895-4.834 5.958-3.088 8.06-15.105 4.482-16.138-4.34" opacity=".1"/><path fill-rule="evenodd" d="m13.955 22.82.046.002h11.52a1.251 1.251 0 0 0 1.04-1.944l-5.338-8.007a1.25 1.25 0 0 0-2.08 0l-5.857 8.785a.751.751 0 0 0 .669 1.164m1.357-1.498h9.742l-4.871-7.307z" clip-rule="evenodd"/><path fill-rule="evenodd" d="M13.908 22.822H25.52a1.251 1.251 0 0 0 1.04-1.944l-2.618-3.927a.75.75 0 0 0-1.04-.208l-1.057.705-.61-.61a.75.75 0 0 0-.947-.095l-1.056.705-1.238-1.238a.75.75 0 0 0-1.154.114l-3.555 5.332a.75.75 0 0 0 .624 1.166m-1.581 0H6.48a1.25 1.25 0 0 1-1.04-1.944l7.429-11.143a1.25 1.25 0 0 1 2.08 0l2.54 3.811-.901 1.352-2.68-4.019-6.961 10.443h5.38a1.75 1.75 0 0 0 0 1.5" clip-rule="evenodd"/><path fill-rule="evenodd" d="M12.328 22.822a1.75 1.75 0 0 1 .125-1.72l5-7.5a.75.75 0 0 0-.938.099l-1.133 1.133-1.057-.704a.75.75 0 0 0-.946.094l-1.561 1.56-1.142-1.142a.75.75 0 0 0-1.154.114L5.44 20.878a1.253 1.253 0 0 0 1.04 1.944z" clip-rule="evenodd"/></g><defs><clipPath id="a"><path fill="#fff" d="M0 0h32v32H0z"/></clipPath></defs></svg>
